build/img/instagram.svg

<svg width="17" height="17" viewBox="0 0 17 17" fill="none" xmlns="http://www.w3.org/2000/svg">
<g clip-path="url(#clip0_3196_9603)">
<path fill-rule="evenodd" clip-rule="evenodd" d="M5.52469 0.519406C6.35556 0.481156 6.62048 0.472656 8.73698 0.472656C10.8535 0.472656 11.1184 0.481865 11.9486 0.519406C12.7787 0.556948 13.3454 0.689406 13.8412 0.881365C14.3604 1.07757 14.8315 1.38428 15.2211 1.78095C15.6177 2.16982 15.9237 2.64016 16.1192 3.16007C16.3119 3.65591 16.4436 4.22257 16.4819 5.05132C16.5201 5.88361 16.5286 6.14853 16.5286 8.26432C16.5286 10.3808 16.5194 10.6457 16.4819 11.4766C16.4444 12.3054 16.3119 12.872 16.1192 13.3679C15.9237 13.8878 15.6172 14.359 15.2211 14.7484C14.8315 15.1451 14.3604 15.4511 13.8412 15.6466C13.3454 15.8392 12.7787 15.971 11.95 16.0092C11.1184 16.0475 10.8535 16.056 8.73698 16.056C6.62048 16.056 6.35556 16.0468 5.52469 16.0092C4.69594 15.9717 4.12927 15.8392 3.63344 15.6466C3.11346 15.451 2.64235 15.1445 2.2529 14.7484C1.8565 14.3593 1.54974 13.8884 1.35402 13.3686C1.16206 12.8727 1.03031 12.3061 0.992062 11.4773C0.953812 10.645 0.945312 10.3801 0.945312 8.26432C0.945312 6.14782 0.954521 5.88291 0.992062 5.05274C1.0296 4.22257 1.16206 3.65591 1.35402 3.16007C1.55003 2.64021 1.85702 2.16934 2.2536 1.78024C2.64251 1.38393 3.11315 1.07718 3.63273 0.881365C4.12856 0.689406 4.69523 0.557656 5.52398 0.519406H5.52469ZM11.8855 1.92191C11.0639 1.88436 10.8174 1.87657 8.73698 1.87657C6.6566 1.87657 6.4101 1.88436 5.58844 1.92191C4.8284 1.95661 4.41615 2.08341 4.14131 2.19036C3.77794 2.33203 3.51798 2.49991 3.24527 2.77261C2.98676 3.02411 2.78781 3.33027 2.66302 3.66866C2.55606 3.94349 2.42927 4.35574 2.39456 5.11578C2.35702 5.93745 2.34923 6.18395 2.34923 8.26432C2.34923 10.3447 2.35702 10.5912 2.39456 11.4129C2.42927 12.1729 2.55606 12.5852 2.66302 12.86C2.78769 13.1979 2.98673 13.5046 3.24527 13.756C3.49673 14.0146 3.80344 14.2136 4.14131 14.3383C4.41615 14.4452 4.8284 14.572 5.58844 14.6067C6.4101 14.6443 6.6559 14.6521 8.73698 14.6521C10.8181 14.6521 11.0639 14.6443 11.8855 14.6067C12.6456 14.572 13.0578 14.4452 13.3326 14.3383C13.696 14.1966 13.956 14.0287 14.2287 13.756C14.4872 13.5046 14.6863 13.1979 14.8109 12.86C14.9179 12.5852 15.0447 12.1729 15.0794 11.4129C15.1169 10.5912 15.1247 10.3447 15.1247 8.26432C15.1247 6.18395 15.1169 5.93745 15.0794 5.11578C15.0447 4.35574 14.9179 3.94349 14.8109 3.66866C14.6693 3.30528 14.5014 3.04532 14.2287 2.77261C13.9772 2.51412 13.671 2.31518 13.3326 2.19036C13.0578 2.08341 12.6456 1.95661 11.8855 1.92191ZM7.74177 10.6663C8.29757 10.8976 8.91645 10.9289 9.49272 10.7546C10.069 10.5804 10.5669 10.2115 10.9014 9.71091C11.2359 9.21035 11.3862 8.60919 11.3267 8.0101C11.2672 7.41102 11.0015 6.85118 10.5751 6.4262C10.3033 6.15453 9.97459 5.94652 9.61271 5.81713C9.25084 5.68775 8.86478 5.6402 8.48233 5.67793C8.09988 5.71565 7.73055 5.8377 7.40092 6.03529C7.0713 6.23288 6.78959 6.5011 6.57607 6.82063C6.36255 7.14017 6.22253 7.50307 6.16609 7.88321C6.10966 8.26335 6.13821 8.65128 6.24969 9.01906C6.36118 9.38685 6.55282 9.72534 6.81082 10.0102C7.06883 10.295 7.38677 10.5191 7.74177 10.6663ZM5.90506 5.43241C6.27695 5.06051 6.71846 4.76551 7.20436 4.56425C7.69026 4.36298 8.21104 4.25939 8.73698 4.25939C9.26291 4.25939 9.7837 4.36298 10.2696 4.56424C10.7555 4.76551 11.197 5.06051 11.5689 5.43241C11.9408 5.8043 12.2358 6.2458 12.4371 6.7317C12.6383 7.2176 12.7419 7.73839 12.7419 8.26432C12.7419 8.79026 12.6383 9.31104 12.4371 9.79694C12.2358 10.2828 11.9408 10.7243 11.5689 11.0962C10.8178 11.8473 9.79915 12.2693 8.73698 12.2693C7.6748 12.2693 6.65613 11.8473 5.90506 11.0962C5.15399 10.3452 4.73204 9.3265 4.73204 8.26432C4.73204 7.20215 5.15399 6.18348 5.90506 5.43241ZM13.6301 4.85582C13.7223 4.76889 13.7961 4.66435 13.8471 4.54839C13.8981 4.43243 13.9254 4.30741 13.9272 4.18073C13.9291 4.05405 13.9055 3.92829 13.8579 3.8109C13.8102 3.6935 13.7395 3.58685 13.65 3.49727C13.5604 3.40768 13.4537 3.33698 13.3363 3.28936C13.2189 3.24173 13.0932 3.21814 12.9665 3.21999C12.8398 3.22183 12.7148 3.24908 12.5988 3.30011C12.4829 3.35114 12.3783 3.42492 12.2914 3.51707C12.1223 3.6963 12.0298 3.93437 12.0333 4.18073C12.0369 4.4271 12.1364 4.66236 12.3106 4.83659C12.4849 5.01081 12.7201 5.11028 12.9665 5.11387C13.2128 5.11746 13.4509 5.02489 13.6301 4.85582Z" fill="#36373C"/>
</g>
<defs>
<clipPath id="clip0_3196_9603">
<rect width="17" height="17" fill="white"/>
</clipPath>
</defs>
</svg>

<svg width="17" height="17" fill="none" xmlns="http://www.w3.org/2000/svg"><g clip-path="url(#a)"><path fill-rule="evenodd" clip-rule="evenodd" d="M5.525.52C6.355.48 6.62.472 8.737.472s2.381.009 3.212.046c.83.038 1.396.17 1.892.362.52.197.99.503 1.38.9.397.389.703.86.898 1.38.193.495.325 1.062.363 1.89.038.833.047 1.098.047 3.213 0 2.117-.01 2.382-.047 3.213-.038.828-.17 1.395-.363 1.89-.195.52-.502.992-.898 1.381a3.82 3.82 0 0 1-1.38.899c-.496.192-1.062.324-1.891.362-.832.038-1.096.047-3.213.047s-2.381-.01-3.212-.047c-.83-.037-1.396-.17-1.892-.362a3.824 3.824 0 0 1-1.38-.899 3.82 3.82 0 0 1-.899-1.38c-.192-.495-.324-1.062-.362-1.89-.038-.833-.047-1.098-.047-3.214 0-2.116.01-2.381.047-3.211.038-.83.17-1.397.362-1.893.196-.52.503-.99.9-1.38A3.82 3.82 0 0 1 3.633.881C4.129.69 4.695.558 5.524.52Zm6.36 1.402c-.821-.038-1.068-.045-3.148-.045s-2.327.007-3.149.045c-.76.035-1.172.161-1.447.268a2.42 2.42 0 0 0-.896.583 2.417 2.417 0 0 0-.582.896c-.107.274-.234.687-.268 1.447-.038.821-.046 1.068-.046 3.148s.008 2.327.046 3.149c.034.76.161 1.172.268 1.447.125.338.324.645.582.896.252.259.558.458.896.582.275.107.687.234 1.447.269.822.037 1.068.045 3.149.045s2.327-.008 3.149-.045c.76-.035 1.172-.162 1.447-.269a2.42 2.42 0 0 0 .896-.582c.258-.251.457-.558.582-.896.107-.275.234-.687.268-1.447.038-.822.046-1.068.046-3.149 0-2.08-.008-2.327-.046-3.148-.034-.76-.161-1.173-.268-1.447a2.419 2.419 0 0 0-.582-.896 2.418 2.418 0 0 0-.896-.583c-.275-.107-.687-.233-1.447-.268Zm-4.143 8.744a2.599 2.599 0 1 0 1.87-4.849 2.6 2.6 0 0 0-1.87 4.85ZM5.905 5.432a4.005 4.005 0 1 1 5.664 5.664 4.005 4.005 0 0 1-5.664-5.664Zm7.725-.576a.946.946 0 1 0-1.298-1.377.946.946 0 0 0 1.298 1.377Z" fill="#36373C"/></g><defs><clipPath id="a"><path fill="#fff" d="M0 0h17v17H0z"/></clipPath></defs></svg>
